dist/images/icons/hamburger_e80eb0cc.svg

<svg height="24" id="Layer_1" version="1.1" viewBox="0 0 24 24" width="24" xml:space="preserve" xmlns="http://www.w3.org/2000/svg"><path d="M23.244 17.009H.75c-.413 0-.75.36-.75.801v3.421c0 .423.337.769.75.769h22.494c.414 0 .75-.346.75-.77v-3.42c0-.441-.336-.801-.75-.801zm0-8H.75c-.413 0-.75.36-.75.801v3.421A.76.76 0 00.75 14h22.494a.76.76 0 00.75-.769V9.81c0-.441-.336-.801-.75-.801zm0-8H.75c-.413 0-.75.36-.75.801v3.42c0 .423.337.769.75.769h22.494a.76.76 0 00.75-.769V1.81c0-.441-.336-.801-.75-.801z"/></svg>

<?xml version="1.0" ?><!DOCTYPE svg  PUBLIC '-//W3C//DTD SVG 1.1//EN'  'http://www.w3.org/Graphics/SVG/1.1/DTD/svg11.dtd'><svg enable-background="new 0 0 24 24" height="24px" id="Layer_1" version="1.1" viewBox="0 0 24 24" width="24px" xml:space="preserve" xmlns="http://www.w3.org/2000/svg" xmlns:xlink="http://www.w3.org/1999/xlink"><g><g><path d="M23.244,17.009H0.75c-0.413,0-0.75,0.36-0.75,0.801v3.421C0,21.654,0.337,22,0.75,22h22.494c0.414,0,0.75-0.346,0.75-0.77    V17.81C23.994,17.369,23.658,17.009,23.244,17.009z M23.244,9.009H0.75C0.337,9.009,0,9.369,0,9.81v3.421    c0,0.424,0.337,0.769,0.75,0.769h22.494c0.414,0,0.75-0.345,0.75-0.769V9.81C23.994,9.369,23.658,9.009,23.244,9.009z     M23.244,1.009H0.75C0.337,1.009,0,1.369,0,1.81V5.23c0,0.423,0.337,0.769,0.75,0.769h22.494c0.414,0,0.75-0.346,0.75-0.769V1.81    C23.994,1.369,23.658,1.009,23.244,1.009z"/></g></g></svg>
